icons/svg/recommend-gray.svg

<?xml version="1.0" encoding="UTF-8"?>
<svg width="21px" height="20px" viewBox="0 0 21 20" version="1.1" xmlns="http://www.w3.org/2000/svg" xmlns:xlink="http://www.w3.org/1999/xlink">
    <!-- Generator: Sketch 57.1 (83088) - https://sketch.com -->
    <title>点赞</title>
    <desc>Created with Sketch.</desc>
    <g id="页面1" stroke="none" stroke-width="1" fill="none" fill-rule="evenodd">
        <g id="消息提醒_关注" transform="translate(-597.000000, -152.000000)" fill="#B2B2B2" fill-rule="nonzero">
            <g id="点赞" transform="translate(597.000000, 152.000000)">
                <path d="M20.0154412,8.00772059 C19.5713235,7.29301471 18.8022059,6.84742647 18.0125,6.82389706 L13.1169118,6.80036765 C13.4433824,5.85772059 13.6080882,4.87536765 13.6080882,3.88125 C13.6080882,3.38713235 13.5654412,2.88125 13.4713235,2.33566176 L13.3801471,1.94154412 C13.1198529,0.812132353 12.1286765,0.0209558824 10.9669118,0.0209558824 C9.60073529,0.0209558824 8.48897059,1.13272059 8.48897059,2.50036765 C8.48897059,2.57977941 8.49191176,2.65772059 8.49926471,2.72242647 C8.43161765,5.14742647 5.5125,7.65036765 4.51985294,7.65036765 C4.51985294,7.65036765 4.51985294,7.65036765 4.51838235,7.65036765 L0.881617647,7.65183824 C0.406617647,7.65183824 0.0198529412,8.04007353 0.0198529412,8.51507353 L0.0110294118,18.6915441 C0.0110294118,19.1738971 0.428676471,19.5253676 0.952205882,19.5400735 L4.10514706,19.5341912 L4.22573529,19.55625 L4.33161765,19.5415441 L16.3316176,19.5459559 C16.7536765,19.5165441 17.1610294,19.3856618 17.5139706,19.1606618 C17.8963235,18.9150735 18.2051471,18.5694853 18.3448529,18.2650735 L18.4919118,18.0209559 C19.3183824,16.0533088 20.3272059,10.0253676 20.3683824,9.77095588 L20.3845588,9.52683824 C20.4257353,8.98566176 20.2977941,8.46066176 20.0154412,8.00772059 Z M1.49044118,9.12977941 L3.45220588,9.12683824 L3.45220588,18.0724265 L1.48308824,18.0783088 L1.49044118,9.12977941 Z M17.1816176,17.3621324 L17.0889706,17.5091912 C17.0051471,17.6783088 16.8772059,17.8209559 16.7213235,17.9209559 C16.5786765,18.0121324 16.4095588,18.0665441 16.2816176,18.0753676 L4.92279412,18.0709559 L4.92279412,9.04889706 C6.8625,8.67095588 9.88602941,5.70625 9.96838235,2.65036765 L9.95955882,2.50036765 C9.95955882,1.94448529 10.4110294,1.49154412 10.9669118,1.49154412 C11.4389706,1.49154412 11.8419118,1.81213235 11.9477941,2.27242647 L12.0301471,2.62242647 C12.1022059,3.04448529 12.1375,3.46654412 12.1375,3.87830882 C12.1375,4.71360294 11.9977941,5.53860294 11.7213235,6.32830882 L11.0448529,8.26801471 L17.7419118,8.26948529 L17.9007353,8.28566176 C18.2566176,8.29889706 18.5801471,8.48566176 18.7669118,8.78566176 C18.8830882,8.97242647 18.9360294,9.19007353 18.9183824,9.52977941 C18.9080882,9.58860294 17.8963235,15.6400735 17.1816176,17.3621324 Z" id="形状"></path>
            </g>
        </g>
    </g>
</svg>

<svg width="21" height="20" xmlns="http://www.w3.org/2000/svg"><path d="M20.015 8.008c-.444-.715-1.213-1.16-2.003-1.184L13.117 6.8a8.9 8.9 0 00.354-4.464l-.09-.394A2.465 2.465 0 0010.966.02a2.481 2.481 0 00-2.468 2.701C8.432 5.147 5.512 7.65 4.52 7.65l-3.637.002a.864.864 0 00-.862.863L.01 18.692c0 .482.418.833.941.848l3.153-.006.12.022.107-.014 12 .004c.422-.03.829-.16 1.182-.385.382-.246.691-.592.83-.896l.148-.244c.826-1.968 1.835-7.996 1.876-8.25l.017-.244a2.493 2.493 0 00-.37-1.52zM1.49 9.13l1.962-.003v8.945l-1.969.006.007-8.948zm15.692 8.232l-.093.147c-.084.17-.212.312-.368.412a1.003 1.003 0 01-.44.154l-11.358-.004V9.049c1.94-.378 4.963-3.343 5.045-6.399L9.96 2.5a1.01 1.01 0 011.007-1.008c.472 0 .875.32.98.78l.083.35a7.4 7.4 0 01-.309 3.706l-.676 1.94 6.697.001.159.017c.356.013.68.2.866.5.116.186.169.404.151.744-.01.059-1.022 6.11-1.736 7.832z"/></svg>
